src/assets/icons/settings/currency.svg

<?xml version="1.0" encoding="UTF-8"?>
<svg width="24px" height="24px" viewBox="0 0 24 24" version="1.1" xmlns="http://www.w3.org/2000/svg" xmlns:xlink="http://www.w3.org/1999/xlink">
    <title>帮助中心图标备份 38</title>
    <g id="扩展程序" stroke="none" stroke-width="1" fill="none" fill-rule="evenodd">
        <g id="设置" transform="translate(-40.000000, -355.000000)" fill="#6E7585" fill-rule="nonzero">
            <g id="编组-6备份-7" transform="translate(20.000000, 171.000000)">
                <g id="编组-4备份-25" transform="translate(20.000000, 168.000000)">
                    <g id="默认法币" transform="translate(0.000000, 16.000000)">
                        <path d="M12,1 C18.0751322,1 23,5.92486775 23,12 C23,18.0751322 18.0751322,23 12,23 C5.92486775,23 1,18.0751322 1,12 C1,5.92486775 5.92486775,1 12,1 Z M12,3 C7.02943725,3 3,7.02943725 3,12 C3,16.9705627 7.02943725,21 12,21 C16.9705627,21 21,16.9705627 21,12 C21,7.02943725 16.9705627,3 12,3 Z M13.4142136,7.75735931 L16.2426407,10.5857864 C17.0236893,11.366835 17.0236893,12.633165 16.2426407,13.4142136 L13.4142136,16.2426407 C12.633165,17.0236893 11.366835,17.0236893 10.5857864,16.2426407 L7.75735931,13.4142136 C6.97631073,12.633165 6.97631073,11.366835 7.75735931,10.5857864 L10.5857864,7.75735931 C11.366835,6.97631073 12.633165,6.97631073 13.4142136,7.75735931 Z M12,9.17157288 L9.17157288,12 L12,14.8284271 L14.8284271,12 L12,9.17157288 Z" id="形状结合备份-4"></path>
                    </g>
                </g>
            </g>
        </g>
    </g>
</svg>

<svg width="24" height="24" xmlns="http://www.w3.org/2000/svg"><path d="M12 1c6.075 0 11 4.925 11 11s-4.925 11-11 11S1 18.075 1 12 5.925 1 12 1zm0 2a9 9 0 1 0 0 18 9 9 0 0 0 0-18zm1.414 4.757 2.829 2.829a2 2 0 0 1 0 2.828l-2.829 2.829a2 2 0 0 1-2.828 0l-2.829-2.829a2 2 0 0 1 0-2.828l2.829-2.829a2 2 0 0 1 2.828 0zM12 9.172 9.172 12 12 14.828 14.828 12 12 9.172z" fill="#6e7585" fill-rule="nonzero"/></svg>
